svg/LeftHanded/ns-resize.svg

<?xml version="1.0" encoding="UTF-8" standalone="no"?>
<!-- Created with Inkscape (http://www.inkscape.org/) -->

<svg
   xmlns:dc="http://purl.org/dc/elements/1.1/"
   xmlns:cc="http://creativecommons.org/ns#"
   xmlns:rdf="http://www.w3.org/1999/02/22-rdf-syntax-ns#"
   xmlns:svg="http://www.w3.org/2000/svg"
   xmlns="http://www.w3.org/2000/svg"
   xmlns:xlink="http://www.w3.org/1999/xlink"
   version="1.0"
   width="500"
   height="500"
   viewBox="0 0 1000 1000"
   id="page"
   xml:space="preserve"><metadata
     id="metadata11"><rdf:RDF><cc:Work
         rdf:about=""><dc:format>image/svg+xml</dc:format><dc:type
           rdf:resource="http://purl.org/dc/dcmitype/StillImage" /><dc:title></dc:title></cc:Work></rdf:RDF></metadata><defs
     id="defs38"><linearGradient
       id="linearGradient2218"><stop
         id="stop2220"
         style="stop-color:#999999;stop-opacity:1"
         offset="0" /><stop
         id="stop2222"
         style="stop-color:#555555;stop-opacity:1"
         offset="1" /></linearGradient><linearGradient
       x1="500"
       y1="106.92376"
       x2="500"
       y2="581.24829"
       id="linearGradient3885"
       xlink:href="#linearGradient2218"
       gradientUnits="userSpaceOnUse"
       gradientTransform="translate(4.108602e-5,-6.666667e-6)" /><linearGradient
       x1="500"
       y1="106.92376"
       x2="500"
       y2="581.24829"
       id="linearGradient3885-5"
       xlink:href="#linearGradient2218-6"
       gradientUnits="userSpaceOnUse"
       gradientTransform="translate(4.108602e-5,-6.666667e-6)" /><linearGradient
       id="linearGradient2218-6"><stop
         id="stop2220-6"
         style="stop-color:#999999;stop-opacity:1"
         offset="0" /><stop
         id="stop2222-7"
         style="stop-color:#555555;stop-opacity:1"
         offset="1" /></linearGradient><filter
       x="-0.4041214"
       y="-0.17068256"
       width="1.8082428"
       height="1.3413651"
       color-interpolation-filters="sRGB"
       id="filter3794"><feGaussianBlur
         id="feGaussianBlur3796"
         stdDeviation="43.398621" /></filter></defs><path
     d="m 864.54119,521.15306 c -12.728,-10e-6 -140.833,164.63999 -128.116,177.35399 12.72901,12.72901 51.74801,26.29201 64.477,39.02101 12.729,12.728 12.729,63.64 12.729,89.095 -10e-4,25.456 -10e-4,76.368 -12.729,89.095 -12.729,12.729 -50.84701,25.392 -63.573,38.116 -12.75,12.751 114.475,177.04504 125.092,177.55304 14.85,0.707 141.28201,-165.60404 128.554,-178.33204 -11.465,-11.465 -50.064,-24.607 -62.792,-37.336 -12.728,-12.72902 -12.728,-70.004 -12.728,-89.096 0,-12.728 0,-76.368 12.729,-89.095 12.728,-12.729 50.485,-25.029 64.145,-38.68801 13.07801,-13.083 -113.574,-177.68699 -127.788,-177.68699 z"
     transform="matrix(1.2,0,0,1.2,-531.55357,-443.97944)"
     id="path3870-8"
     style="opacity:0.15;fill:#111111;fill-opacity:1;stroke:none;filter:url(#filter3794)" /><path
     d="m 505.86898,122.42789 c -12.728,-1e-5 -140.833,164.63999 -128.116,177.35399 12.72901,12.729 51.74801,26.292 64.477,39.021 12.729,12.728 12.729,63.64 12.729,89.095 -10e-4,25.456 -10e-4,76.368 -12.729,89.095 -12.729,12.72901 -50.84701,25.392 -63.573,38.116 -12.75,12.751 114.475,177.045 125.092,177.553 14.85,0.707 141.282,-165.604 128.554,-178.332 -11.465,-11.465 -50.064,-24.607 -62.792,-37.336 -12.728,-12.72901 -12.728,-70.004 -12.728,-89.096 0,-12.72799 0,-76.368 12.729,-89.095 12.728,-12.729 50.48499,-25.029 64.145,-38.688 13.078,-13.083 -113.574,-177.68699 -127.788,-177.68699 z"
     id="path3870"
     style="opacity:0.75;fill:url(#linearGradient3885);fill-opacity:1;stroke:#000000;stroke-width:20;stroke-linecap:round;stroke-linejoin:round;stroke-miterlimit:1;stroke-dasharray:none" /></svg>

<?xml version="1.0" encoding="UTF-8" standalone="no"?>
<!-- Created with Inkscape (http://www.inkscape.org/) -->
<svg
   xmlns:svg="http://www.w3.org/2000/svg"
   xmlns="http://www.w3.org/2000/svg"
   xmlns:xlink="http://www.w3.org/1999/xlink"
   version="1.0"
   width="500"
   height="500"
   viewBox="0 0 1000 1000"
   id="page"
   xml:space="preserve"><defs
     id="defs38"><linearGradient
       id="linearGradient2218"><stop
         id="stop2220"
         style="stop-color:#999999;stop-opacity:1"
         offset="0" /><stop
         id="stop2222"
         style="stop-color:#555555;stop-opacity:1"
         offset="1" /></linearGradient><linearGradient
       x1="500"
       y1="106.92376"
       x2="500"
       y2="581.24829"
       id="linearGradient3885"
       xlink:href="#linearGradient2218"
       gradientUnits="userSpaceOnUse"
       gradientTransform="translate(4.108602e-5,-6.666667e-6)" /></defs><path
     d="M 505.86898,122.42789 C 493.14098,122.42788 365.03598,287.06788 377.75298,299.78188 C 390.48199,312.51088 429.50099,326.07388 442.22998,338.80288 C 454.95898,351.53088 454.95898,402.44288 454.95898,427.89788 C 454.95798,453.35388 454.95798,504.26588 442.22998,516.99288 C 429.50098,529.72189 391.38297,542.38488 378.65698,555.10888 C 365.90698,567.85988 493.13198,732.15388 503.74898,732.66188 C 518.59898,733.36888 645.03098,567.05788 632.30298,554.32988 C 620.83798,542.86488 582.23898,529.72288 569.51098,516.99388 C 556.78298,504.26487 556.78298,446.98988 556.78298,427.89788 C 556.78298,415.16989 556.78298,351.52988 569.51198,338.80288 C 582.23998,326.07388 619.99697,313.77388 633.65698,300.11488 C 646.73498,287.03188 520.08298,122.42789 505.86898,122.42789 z"
     id="path3870"
     style="opacity:1;fill:url(#linearGradient3885);fill-opacity:1;stroke:#000000;stroke-width:20;stroke-linecap:round;stroke-linejoin:round;stroke-miterlimit:1;stroke-dasharray:none" /></svg>
